react/assets/forus-webshop/resources/webshop-fijnder/assets/img/placeholders/payout.svg

<svg width="200" height="200" viewBox="0 0 200 200" fill="none" xmlns="http://www.w3.org/2000/svg">
<rect width="200" height="200" fill="#F7F8FA"/>
<g clip-path="url(#clip0_7_1575)">
<path d="M139.1 95.3998H65.4993C63.0034 95.3914 60.579 94.5624 58.5996 93.0414V136.8C58.6052 141.879 62.7205 145.995 67.7995 146H139.1C140.37 146 141.399 144.97 141.399 143.7V127.6H125.3C124.029 127.6 122.999 126.57 122.999 125.3V111.5C122.999 110.23 124.027 109.201 125.297 109.2H125.3H141.399V97.6999C141.4 96.4302 140.372 95.4005 139.103 95.3998C139.101 95.3998 139.1 95.3998 139.1 95.3998Z" fill="#008486"/>
<path d="M127.6 113.8H141.4V122.999H127.6V113.8Z" fill="#B31869"/>
<path d="M65.4993 90.8002H132.199V79.3001C132.199 78.0297 131.17 77 129.9 77H106.9V79.3001C106.9 83.1108 103.81 86.1999 99.9994 86.1999C96.1888 86.1999 93.0997 83.1101 93.0997 79.3001V77H65.4993C61.6887 77 58.5996 80.0891 58.5996 83.8997C58.5996 87.7104 61.6887 90.8002 65.4993 90.8002Z" fill="#008486"/>
<path d="M89.9379 67.2967L97.7003 61.0842V79.3C97.7003 80.5705 98.73 81.6002 100 81.6002C101.271 81.6002 102.301 80.5698 102.301 79.3V61.0835L110.063 67.2953C111.055 68.0892 112.504 67.9284 113.297 66.9359C114.091 65.9435 113.93 64.4954 112.938 63.7016L101.438 54.5017C100.596 53.8328 99.4046 53.8328 98.563 54.5017L87.0629 63.7016C86.0704 64.4954 85.9097 65.9435 86.7036 66.9359C87.4974 67.9284 88.9455 68.0892 89.9379 67.2953V67.2967Z" fill="#B31869"/>
</g>
<defs>
<clipPath id="clip0_7_1575">
<rect width="92" height="92" fill="white" transform="translate(54 54)"/>
</clipPath>
</defs>
</svg>

<svg xmlns="http://www.w3.org/2000/svg" width="200" height="200" fill="none" viewBox="0 0 200 200"><path fill="#f7f8fa" d="M0 0h200v200H0z"/><g clip-path="url(#a)"><path fill="#008486" d="M139.1 95.4H65.5a11.4 11.4 0 0 1-6.9-2.359V136.8a9.21 9.21 0 0 0 9.2 9.2h71.3a2.3 2.3 0 0 0 2.299-2.3v-16.1H125.3a2.3 2.3 0 0 1-2.301-2.3v-13.8a2.3 2.3 0 0 1 2.298-2.3h16.102V97.7a2.3 2.3 0 0 0-2.296-2.3z"/><path fill="#b31869" d="M127.6 113.8h13.8v9.199h-13.8z"/><path fill="#008486" d="M65.5 90.8h66.699V79.3A2.3 2.3 0 0 0 129.9 77h-23v2.3a6.9 6.9 0 0 1-13.8 0V77H65.5a6.9 6.9 0 1 0 0 13.8"/><path fill="#b31869" d="m89.938 67.297 7.762-6.213V79.3a2.3 2.3 0 1 0 4.601 0V61.084l7.762 6.211a2.3 2.3 0 1 0 2.875-3.593l-11.5-9.2a2.31 2.31 0 0 0-2.875 0l-11.5 9.2a2.3 2.3 0 1 0 2.875 3.593z"/></g><defs><clipPath id="a"><path fill="#fff" d="M54 54h92v92H54z"/></clipPath></defs></svg>
